X:1
T:Paddys the Boy
M:6/8
L:1/8
R:Jig
C:George W. Allen
S:George W. Allen – Clogs, Hornpipes, Reels & Jigs (No. 38)
S:From a handmade music manuscript book, date unknown (late 19th cent.)
S:[https://archive.org/stream/ClogsHornpipesReelsJigs/MUMSS-00089#page/n0/mode/2up].
Z:AK/Fiddler’s Companion
K:A
E|AEE cAA|ecc agf|ecA AGA|cBB BcB|
AEE cAA|ecc agf|efe dcB|cAA A2:|
|:f|ecA agf|ecA ABA|ecA aga|bge efg|
Aba aec|def fga|efe dcB|cAA A2!D.C.!:|
